_inc/images/systems/logos/ecwolf.svg

<svg data-name="Warstwa 1" viewBox="0 0 264 47" xmlns="http://www.w3.org/2000/svg">
    <path d="M252.27 47c-2.338-.135-3.566-1.785-4.754-3.499-1.49-2.176-2.908-4.401-4.414-6.569a9.252 9.252 0 0 1-1.648-5.285c-.039-3.021-.095-6.05 0-9.072a5.684 5.684 0 0 1 .793-2.702 89.553 89.553 0 0 1 4.167-6.034c1.165-1.595 1.585-1.595 3.273-.654 1.513.861 2.971 1.81 4.476 2.694.451.239.913.453 1.387.638 1.418-4.48 0-7.971-3.375-10.73L258.094 0c1.505 1.379 3.169 2.942 4.864 4.44a3.126 3.126 0 0 1 1.031 2.599c-.04 10.227 0 20.455-.048 30.683a3.082 3.082 0 0 1-.578 1.713c-1.886 2.552-3.835 5.047-5.769 7.565Zm3.803-20.79c-.111-1.339-.119-2.495-.325-3.61a1.767 1.767 0 0 0-2.306-1.531 5.393 5.393 0 0 0-1.584.582 10.698 10.698 0 0 0-4.279 4.608c-1.03 2.064-.792 4.256-.848 6.457-.055 2.933 1.466 4.783 3.732 6.185 1.284.798 2.457.686 3.336-.573a7.489 7.489 0 0 0 1.299-2.998c.428-3.085.666-6.194.975-9.12ZM62.603 3.218a18.963 18.963 0 0 1 2.979 10.762c-.103 4.783 0 9.566.071 14.349.04 3.405.072 3.405 1.87 6.672l-3.724 4.744c-.404.518-.792.526-1.252.055-1.244-1.314-2.511-2.614-3.739-3.986a.8.8 0 0 1-.127-.733c1.513-2.391 1.585-5.125 1.648-7.835.063-3.535.087-7.066.071-10.595a8.108 8.108 0 0 0-2.646-5.939c-.341-.326-.634-.702-1.046-1.163l5.705-6.378Zm-49.252 8.108 6.03-6.338c1.584 2.033 3.169 3.923 4.603 5.924 1.197 1.673.658 3.643.476 5.484-.317 3.133-.793 6.258-1.141 9.383a5.358 5.358 0 0 0 2.583 5.476c2.036-2.631 4.152-5.23 4.136-8.833 0-1.905-.19-3.81-.357-5.715a9.835 9.835 0 0 0-1.822-4.783 1.058 1.058 0 0 1-.159-.908c1.038-1.675 2.084-3.349 3.241-4.935.689-.941 1.188-.941 1.909-.049 2.75 3.389 4.509 7.119 3.851 11.671a43.022 43.022 0 0 1-3.557 12.133 31.126 31.126 0 0 1-2.132 3.349l-.554.876h2.282c.697 0 1.362-.199 2.305-.343-1.18 1.97-2.218 3.739-3.328 5.477a1.576 1.576 0 0 1-.99.486c-2.623.414-5.245.798-7.876 1.172a5.179 5.179 0 0 1-4.334-1.53c-1.331-1.213-1.458-1.197-3.098-.407-1.196.582-2.377 1.155-3.613 1.681a3.652 3.652 0 0 1-4.073-.677 16.351 16.351 0 0 1-4.572-6.138 7.728 7.728 0 0 1-.412-2.814c0-3.882-.063-7.772 0-11.662a11.153 11.153 0 0 0-1.846-6.88c-.317-.463-.562-.988-.903-1.595l6.046-5.508c2.329 2.862 4.936 5.525 4.817 9.566-.071 2.615-.301 5.213-.42 7.828-.095 1.938-.15 3.875-.15 5.819a5.356 5.356 0 0 0 1.521 3.612c1.022 1.148 2.306 1.179 3.724.797.043-.138.075-.279.095-.422v-13.68a11.439 11.439 0 0 0-1.822-6.608c-.159-.295-.286-.583-.46-.909Zm224.76-8.169-8.978 11.519c.729.454 1.292.845 1.894 1.18 6.117 3.419 7.567 6.376 6.339 13.296a30.118 30.118 0 0 1-4.437 11.695 16.233 16.233 0 0 1-4.58 4.647 5.362 5.362 0 0 1-4.334.9c-4.271-.996-8.248-2.79-12.416-4.559l4.358-3.564c.792-.645 1.584-1.323 2.377-1.896a1.476 1.476 0 0 1 1.157-.176c1.854.646 3.676 1.371 5.546 2.049.482.158.975.281 1.474.366a2.9 2.9 0 0 0 3.288-1.499c2.417-3.786 1.949-7.908-1.323-11.224a22.733 22.733 0 0 0-6.474-4.272l-1.759-.885c2.671-3.252 5.301-6.449 7.924-9.646l-.135-.334c-1.299-.088-2.591-.223-3.898-.256-1.957-.047-3.922 0-5.887-.047-1.965-.048-2.298-.534-1.252-2.256a102.158 102.158 0 0 1 2.971-4.664c.187-.262.474-.436.792-.478h17.012c.127-.016.182.032.341.104Z" fill="#fff"/>
    <path d="M57.627 23.331c0 3.986-.412 7.438-1.862 10.674-2.163 4.831-5.586 6.577-10.815 6.122-4.263-.367-8.249-5.213-8.13-9.279a22.462 22.462 0 0 1 3.582-12.085 12.616 12.616 0 0 1 8.898-5.476c2.527-.383 4.555 1.004 6.148 2.949a9.756 9.756 0 0 1 2.179 7.095Zm-6.553 6.314h-.111v-1.044a9.987 9.987 0 0 0-3.613-7.485c-1.355-1.093-2.02-.91-2.765.644a7.579 7.579 0 0 0 .182 7.128 8.892 8.892 0 0 0 3.582 4.073c.94.575 2.163.033 2.377-1.052.172-.747.298-1.503.38-2.264Zm20.467-11.121h-2.084a.929.929 0 0 1-1.046-1.059.962.962 0 0 1 .99-1.045c2.029-.247 2.029-.255 2.282-2.304 0-.319.087-.63.111-.948a5.576 5.576 0 0 1 3.962-5.246c2.107-.797 4.128-1.786 6.275-2.392 2.908-.86 6.703 1.595 7.313 4.6.024.323-.109.638-.356.845-1.315.797-2.662 1.475-4.025 2.144-.198.104-.594 0-.84-.183-.737-.438-1.41-.988-2.163-1.371-.983-.502-1.648-.12-1.854.981-.073.408-.11.821-.111 1.235 0 2.201.261 2.144 1.862 2.121 1.117 0 1.268.23 1.268 1.506 0 1.435-.135 1.634-1.3 1.682h-2.884v1.077c0 5.866 0 11.734-.048 17.601 0 2.16-.221 4.32-.324 6.48a1.489 1.489 0 0 1-1.435 1.595c-1.537.088-3.09 0-4.635 0-.665 0-.697-.55-.713-1.028-.087-2.328-.206-4.647-.222-6.975-.039-6.091 0-12.181-.039-18.272Zm45.44 22.289c-1.584-1.866-3.169-3.675-4.754-5.509a.8.8 0 0 1 .151-1.299 2.461 2.461 0 0 0 1.117-2.295c0-2.448 0-4.903-.127-7.343-.103-1.713-.792-2.391-2.496-2.806-3.05-.797-3.866-.183-3.961 2.997-.072 1.97 0 3.986 0 5.916a4.614 4.614 0 0 0 1.584 3.723c.373.343.682.749 1.086 1.203l-4.667 5.485c-1.474-1.69-2.876-3.237-4.191-4.863a1.75 1.75 0 0 1-.254-1.482c1.212-2.759 1.054-5.66 1.014-8.554a15.657 15.657 0 0 0-1.26-6.322.897.897 0 0 1 .135-.797 34.09 34.09 0 0 1 2.789-2.447c1.339-1.021 2.258-.869 3.36.423 1.275 1.49 1.267 1.482 2.884.326 1.03-.741 2.06-1.49 3.122-2.168a3.469 3.469 0 0 1 3.961.127c2.512 1.547 3.265 3.93 3.352 6.665.089 2.891.142 5.787.158 8.689 0 1.427.286 2.638 1.68 3.347.666.343.713.894.396 1.54-1.125 2.296-3.05 3.826-5.079 5.444Zm81.572-5.899c2.805-2.304 2.163-5.453 2.187-8.426 0-.414-.095-.797-.071-1.243a3.054 3.054 0 0 0-2.195-3.292 10.834 10.834 0 0 0-2.243-.703 1.871 1.871 0 0 0-2.337 1.595 9.19 9.19 0 0 0-.309 1.977c-.071 1.522-.079 3.053-.111 4.576a7.081 7.081 0 0 0 2.036 5.093 1.176 1.176 0 0 1 0 1.906c-.935.988-1.727 2.12-2.63 3.133-.903 1.012-1.498 1.02-2.377.055-1.133-1.243-2.203-2.55-3.265-3.858a.934.934 0 0 1 0-.797c1.965-3.922 1.767-8.011.88-12.125a15.177 15.177 0 0 0-1.173-3.013.8.8 0 0 1 .27-1.124c1.038-.797 2.075-1.595 3.058-2.432 1.268-1.1 2.67-.159 3.225.869.792 1.404.911 1.451 2.242.51a44.68 44.68 0 0 1 3.851-2.606c1.743-.972 2.662-.797 4.12.55 2.908 2.639 2.9 2.639 2.908 6.553 0 2.454.079 4.91.055 7.365a5.333 5.333 0 0 0 1.989 4.616c.579.455.595.861.222 1.522a13.126 13.126 0 0 1-4.176 4.488 1.143 1.143 0 0 1-1.782-.215c-1.434-1.746-2.924-3.379-4.374-4.974Zm-64.299-21.388c1.688.287 3.384.511 5.048.869 1.315.279 1.465.845.523 1.818-.943.972-2.1 2.032-3.209 2.981-.3.182-.662.231-.999.136-1.402-.367-2.773-.894-4.191-1.196-1.419-.303-2.005.087-2.338 1.148-.531 1.674-.269 2.638 1.054 3.189 1.094.486 2.258.797 3.399 1.187s2.1.701 3.17 1.093a5.168 5.168 0 0 1 3.494 4.782c.143 1.594.246 3.245.325 4.863a1.46 1.46 0 0 1-.325.797c-3.597 4.528-8.494 5.707-13.937 5.373a10.522 10.522 0 0 1-2.766-.574c-1.141-.407-1.323-1.004-.634-1.969a34.914 34.914 0 0 1 2.544-3.093c.166-.191.689-.183.998-.096 1.981.566 3.962 1.276 6.038 1.045.933-.1 1.837-.39 2.654-.853a2.687 2.687 0 0 0 1.062-2.886 2.04 2.04 0 0 0-1.83-1.698c-1.823-.39-3.669-.701-5.499-1.044-.127 0-.254 0-.381-.064-4.754-1.06-6.489-4.528-4.611-9.064 1.753-4.196 5.89-6.875 10.411-6.744Z" fill="#fff"/>
    <path d="M88.711 34.244h5.372c1.196 0 2.377.215 3.589.304.666.047.792.374.602.964-.499 1.706-.966 3.419-1.489 5.285-2.94-.104-5.856-.056-8.716-.351a5.382 5.382 0 0 1-4.715-3.929c-1.933-5.979-1.584-11.743 1.934-17.108a11.281 11.281 0 0 1 6.552-4.6 3.009 3.009 0 0 1 3.431.989c.755.9 1.443 1.854 2.06 2.854a2.443 2.443 0 0 1-.198 2.95 20.524 20.524 0 0 1-2.203 2.391 100.036 100.036 0 0 1-4.928 4.201 3.308 3.308 0 0 0-1.434 3.292c.095.789.079 1.626.143 2.758Zm-.603-7.628c1.189-.941 2.219-1.715 3.17-2.535 1.505-1.268 1.474-1.691-.095-2.91-.103-.072-.206-.152-.317-.215a1.073 1.073 0 0 0-1.64.351 8.925 8.925 0 0 0-1.118 5.309Zm73.942 8.298h6.061c1.395 0 2.781.175 4.168.247.602 0 .753.319.634.877-.333 1.594-.634 3.189-.999 4.783a.853.853 0 0 1-.649.462c-2.567 0-5.127-.048-7.694-.072a5.28 5.28 0 0 1-4.39-2.606 14.54 14.54 0 0 1-2.377-7.055 19.1 19.1 0 0 1 .706-7.653 8.24 8.24 0 0 1 2.29-3.898 58.816 58.816 0 0 1 5.245-4.217c1.751-1.18 3.304-.964 4.841.51.832.82 1.523 1.774 2.044 2.823.793 1.593.563 2.678-.729 3.874-2.076 1.912-4.215 3.754-6.338 5.627-.405.359-.793.798-1.197 1.093-1.703 1.291-1.814 3.108-1.616 5.205Zm-.349-9.223c.206 1.028.618 1.53 1.101 1.148 1.435-1.117 2.79-2.336 4.152-3.555a.745.745 0 0 0 .072-.678c-.61-1.252-3.407-1.467-4.057-.247a26.83 26.83 0 0 0-1.268 3.3Zm-10.768-8.155v14.58c-.035.338.052.677.246.957 1.141.988 2.377 1.904 3.502 2.877a.958.958 0 0 1 .309.734 3.335 3.335 0 0 1-.578 1.188c-1.03 1.323-2.1 2.622-3.17 3.985-3.47-2.12-6.132-4.647-6.085-9.04.063-5.032.124-10.063.182-15.09v-.677c-.57 0-1.125-.04-1.679-.08-1.007-.072-1.197-.343-1.189-1.594.008-1.252.214-1.499 1.149-1.595 1.371-.119 1.497-.207 1.466-1.594a3.274 3.274 0 0 1 1.291-2.829l4.493-3.548v7.971h3.122c1.489 0 1.632.175 1.632 1.642 0 2.081 0 2.113-2.108 2.153-.808-.032-1.6-.04-2.583-.04Zm33.714 17.809-4.476 4.782a363.204 363.204 0 0 1-4.58-4.416.704.704 0 0 1 0-.653c1.482-2.503 1.585-5.27 1.585-8.052v-7.365a1.714 1.714 0 0 1 .792-1.595c1.117-.797 2.187-1.713 3.534-2.782a25.82 25.82 0 0 1 .792 3.595c.167 2.503.182 5.022.254 7.542v2.295a9.605 9.605 0 0 0 2.099 6.649Zm-8.509-26.617a3.51 3.51 0 0 1 4.595-.089c.903.662 1.862 1.26 2.805 1.898-1.03 1.212-2.131 1.53-3.256.869-1.427-.821-2.758-1.77-4.144-2.678Z" fill="#fff"/>
</svg>

<?xml version="1.0" encoding="utf-8"?>
<svg id="Warstwa_1" data-name="Warstwa 1" viewBox="0 0 264 47" xmlns="http://www.w3.org/2000/svg">
  <title>ecwolf</title>
  <path d="M 252.27 47 C 249.932 46.865 248.704 45.215 247.516 43.501 C 246.026 41.325 244.608 39.1 243.102 36.932 C 242.027 35.383 241.452 33.538 241.454 31.647 C 241.415 28.626 241.359 25.597 241.454 22.575 C 241.488 21.622 241.76 20.692 242.247 19.873 C 243.546 17.801 244.949 15.799 246.414 13.839 C 247.579 12.244 247.999 12.244 249.687 13.185 C 251.2 14.046 252.658 14.995 254.163 15.879 C 254.614 16.118 255.076 16.332 255.55 16.517 C 256.968 12.037 255.55 8.546 252.175 5.787 L 258.094 0 C 259.599 1.379 261.263 2.942 262.958 4.44 C 263.691 5.094 264.073 6.058 263.989 7.039 C 263.949 17.266 263.989 27.494 263.941 37.722 C 263.924 38.339 263.722 38.935 263.363 39.435 C 261.477 41.987 259.528 44.482 257.594 47 Z M 256.073 26.21 C 255.962 24.871 255.954 23.715 255.748 22.6 C 255.646 21.463 254.522 20.716 253.442 21.069 C 252.888 21.178 252.353 21.375 251.858 21.651 C 250.005 22.72 248.515 24.326 247.579 26.259 C 246.549 28.323 246.787 30.515 246.731 32.716 C 246.676 35.649 248.197 37.499 250.463 38.901 C 251.747 39.699 252.92 39.587 253.799 38.328 C 254.447 37.437 254.891 36.413 255.098 35.33 C 255.526 32.245 255.764 29.136 256.073 26.21 Z" fill="white"/>
  <path d="M 62.603 3.218 C 64.653 6.422 65.691 10.173 65.582 13.98 C 65.479 18.763 65.582 23.546 65.653 28.329 C 65.693 31.734 65.725 31.734 67.523 35.001 L 63.799 39.745 C 63.395 40.263 63.007 40.271 62.547 39.8 C 61.303 38.486 60.036 37.186 58.808 35.814 C 58.648 35.607 58.6 35.331 58.681 35.081 C 60.194 32.69 60.266 29.956 60.329 27.246 C 60.392 23.711 60.416 20.18 60.4 16.651 C 60.384 14.386 59.424 12.232 57.754 10.712 C 57.413 10.386 57.12 10.01 56.708 9.549 L 62.413 3.171 Z" fill="white"/>
  <path d="M 13.351 11.326 L 19.381 4.988 C 20.965 7.021 22.55 8.911 23.984 10.912 C 25.181 12.585 24.642 14.555 24.46 16.396 C 24.143 19.529 23.667 22.654 23.319 25.779 C 22.969 27.966 23.996 30.144 25.902 31.255 C 27.938 28.624 30.054 26.025 30.038 22.422 C 30.038 20.517 29.848 18.612 29.681 16.707 C 29.506 14.978 28.877 13.328 27.859 11.924 C 27.669 11.661 27.612 11.326 27.7 11.016 C 28.738 9.341 29.784 7.667 30.941 6.081 C 31.63 5.14 32.129 5.14 32.85 6.032 C 35.6 9.421 37.359 13.151 36.701 17.703 C 36.119 21.902 34.92 25.991 33.144 29.836 C 32.505 30.996 31.794 32.115 31.012 33.185 L 30.458 34.061 C 31.369 34.061 32.042 34.061 32.74 34.061 C 33.437 34.061 34.102 33.862 35.045 33.718 C 33.865 35.688 32.827 37.457 31.717 39.195 C 31.456 39.471 31.104 39.644 30.727 39.681 C 28.104 40.095 25.482 40.479 22.851 40.853 C 21.248 41.047 19.647 40.483 18.517 39.323 C 17.186 38.11 17.059 38.126 15.419 38.916 C 14.223 39.498 13.042 40.071 11.806 40.597 C 10.439 41.234 8.824 40.966 7.733 39.92 C 5.747 38.267 4.18 36.164 3.161 33.782 C 2.851 32.878 2.711 31.924 2.749 30.968 C 2.749 27.086 2.686 23.196 2.749 19.306 C 2.902 16.871 2.253 14.453 0.903 12.426 C 0.586 11.963 0.341 11.438 0 10.831 L 6.046 5.323 C 8.375 8.185 10.982 10.848 10.863 14.889 C 10.792 17.504 10.562 20.102 10.443 22.717 C 10.348 24.655 10.293 26.592 10.293 28.536 C 10.326 29.891 10.87 31.181 11.814 32.148 C 12.836 33.296 14.12 33.327 15.538 32.945 C 15.581 32.807 15.613 32.666 15.633 32.523 C 15.633 27.963 15.633 23.403 15.633 18.843 C 15.715 16.505 15.079 14.197 13.811 12.235 C 13.652 11.94 13.525 11.652 13.351 11.326 Z" fill="white"/>
  <path d="M 238.111 3.157 L 229.133 14.676 C 229.862 15.13 230.425 15.521 231.027 15.856 C 237.144 19.275 238.594 22.232 237.366 29.152 C 236.721 33.32 235.209 37.305 232.929 40.847 C 231.731 42.691 230.173 44.273 228.349 45.494 C 227.099 46.405 225.521 46.732 224.015 46.394 C 219.744 45.398 215.767 43.604 211.599 41.835 L 215.957 38.271 C 216.749 37.626 217.541 36.948 218.334 36.375 C 218.68 36.159 219.098 36.096 219.491 36.199 C 221.345 36.845 223.167 37.57 225.037 38.248 C 225.519 38.406 226.012 38.529 226.511 38.614 C 227.82 38.942 229.182 38.322 229.799 37.115 C 232.216 33.329 231.748 29.207 228.476 25.891 C 226.577 24.106 224.387 22.66 222.002 21.619 L 220.243 20.734 C 222.914 17.482 225.544 14.285 228.167 11.088 L 228.032 10.754 C 226.733 10.666 225.441 10.531 224.134 10.498 C 222.177 10.451 220.212 10.498 218.247 10.451 C 216.282 10.403 215.949 9.917 216.995 8.195 C 217.951 6.601 218.942 5.046 219.966 3.531 C 220.153 3.269 220.44 3.095 220.758 3.053 C 226.424 3.053 232.097 3.053 237.77 3.053 C 237.897 3.037 237.952 3.085 238.111 3.157 Z" fill="white"/>
  <path d="M 57.627 23.331 C 57.627 27.317 57.215 30.769 55.765 34.005 C 53.602 38.836 50.179 40.582 44.95 40.127 C 40.687 39.76 36.701 34.914 36.82 30.848 C 36.837 26.558 38.08 22.363 40.402 18.763 C 42.445 15.733 45.688 13.737 49.3 13.287 C 51.827 12.904 53.855 14.291 55.448 16.236 C 57.08 18.218 57.863 20.77 57.627 23.331 Z M 51.074 29.645 L 50.963 29.645 C 50.963 29.294 50.963 28.943 50.963 28.601 C 50.901 25.695 49.582 22.962 47.35 21.116 C 45.995 20.023 45.33 20.206 44.585 21.76 C 43.454 24.017 43.523 26.693 44.767 28.888 C 45.51 30.588 46.762 32.012 48.349 32.961 C 49.289 33.536 50.512 32.994 50.726 31.909 C 50.898 31.162 51.024 30.406 51.106 29.645 Z" fill="white"/>
  <path d="M 71.541 18.524 L 69.457 18.524 C 68.843 18.611 68.32 18.08 68.411 17.465 C 68.363 16.888 68.827 16.398 69.401 16.42 C 71.43 16.173 71.43 16.165 71.683 14.116 C 71.683 13.797 71.77 13.486 71.794 13.168 C 71.838 10.738 73.441 8.616 75.756 7.922 C 77.863 7.125 79.884 6.136 82.031 5.53 C 84.939 4.67 88.734 7.125 89.344 10.13 C 89.368 10.453 89.235 10.768 88.988 10.975 C 87.673 11.772 86.326 12.45 84.963 13.119 C 84.765 13.223 84.369 13.119 84.123 12.936 C 83.386 12.498 82.713 11.948 81.96 11.565 C 80.977 11.063 80.312 11.445 80.106 12.546 C 80.033 12.954 79.996 13.367 79.995 13.781 C 79.995 15.982 80.256 15.925 81.857 15.902 C 82.974 15.902 83.125 16.132 83.125 17.408 C 83.125 18.843 82.99 19.042 81.825 19.09 C 80.914 19.09 79.995 19.09 78.941 19.09 L 78.941 20.167 C 78.941 26.033 78.941 31.901 78.893 37.768 C 78.893 39.928 78.672 42.088 78.569 44.248 C 78.627 45.093 77.976 45.818 77.134 45.843 C 75.597 45.931 74.044 45.843 72.499 45.843 C 71.834 45.843 71.802 45.293 71.786 44.815 C 71.699 42.487 71.58 40.168 71.564 37.84 C 71.525 31.749 71.564 25.659 71.525 19.568 Z" fill="white"/>
  <path d="M 116.981 40.813 C 115.397 38.947 113.812 37.138 112.227 35.304 C 111.815 34.937 111.892 34.267 112.378 34.005 C 113.148 33.51 113.579 32.624 113.495 31.71 C 113.495 29.262 113.495 26.807 113.368 24.367 C 113.265 22.654 112.576 21.976 110.872 21.561 C 107.822 20.764 107.006 21.378 106.911 24.558 C 106.839 26.528 106.911 28.544 106.911 30.474 C 106.839 31.895 107.423 33.269 108.495 34.197 C 108.868 34.54 109.177 34.946 109.581 35.4 L 104.914 40.885 C 103.44 39.195 102.038 37.648 100.723 36.022 C 100.42 35.591 100.326 35.047 100.469 34.54 C 101.681 31.781 101.523 28.88 101.483 25.986 C 101.506 23.814 101.077 21.661 100.223 19.664 C 100.139 19.392 100.189 19.096 100.358 18.867 C 101.243 18.001 102.174 17.184 103.147 16.42 C 104.486 15.399 105.405 15.551 106.507 16.843 C 107.782 18.333 107.774 18.325 109.391 17.169 C 110.421 16.428 111.451 15.679 112.513 15.001 C 113.731 14.211 115.309 14.261 116.474 15.128 C 118.986 16.675 119.739 19.058 119.826 21.793 C 119.915 24.684 119.968 27.58 119.984 30.482 C 119.984 31.909 120.27 33.12 121.664 33.829 C 122.33 34.172 122.377 34.723 122.06 35.369 C 120.935 37.665 119.01 39.195 116.981 40.813 Z" fill="white"/>
  <path d="M 198.553 34.914 C 201.358 32.61 200.716 29.461 200.74 26.488 C 200.74 26.074 200.645 25.691 200.669 25.245 C 200.84 23.754 199.91 22.358 198.474 21.953 C 197.753 21.638 197.002 21.402 196.231 21.25 C 195.132 20.957 194.029 21.709 193.894 22.845 C 193.719 23.491 193.616 24.154 193.585 24.822 C 193.514 26.344 193.506 27.875 193.474 29.398 C 193.442 31.303 194.176 33.139 195.51 34.491 C 196.159 34.958 196.159 35.929 195.51 36.397 C 194.575 37.385 193.783 38.517 192.88 39.53 C 191.977 40.542 191.382 40.55 190.503 39.585 C 189.37 38.342 188.3 37.035 187.238 35.727 C 187.119 35.475 187.119 35.182 187.238 34.93 C 189.203 31.008 189.005 26.919 188.118 22.805 C 187.835 21.761 187.442 20.751 186.945 19.792 C 186.699 19.408 186.822 18.896 187.215 18.668 C 188.253 17.871 189.29 17.073 190.273 16.236 C 191.541 15.136 192.943 16.077 193.498 17.105 C 194.29 18.509 194.409 18.556 195.74 17.615 C 196.978 16.68 198.263 15.81 199.591 15.009 C 201.334 14.037 202.253 14.212 203.711 15.559 C 206.619 18.198 206.611 18.198 206.619 22.112 C 206.619 24.566 206.698 27.022 206.674 29.477 C 206.526 31.254 207.273 32.987 208.663 34.093 C 209.242 34.548 209.258 34.954 208.885 35.615 C 207.865 37.422 206.434 38.959 204.709 40.103 C 204.184 40.624 203.315 40.519 202.927 39.888 C 201.493 38.142 200.003 36.509 198.553 34.914 Z" fill="white"/>
  <path d="M 134.254 13.526 C 135.942 13.813 137.638 14.037 139.302 14.395 C 140.617 14.674 140.767 15.24 139.825 16.213 C 138.882 17.185 137.725 18.245 136.616 19.194 C 136.316 19.376 135.954 19.425 135.617 19.33 C 134.215 18.963 132.844 18.436 131.426 18.134 C 130.007 17.831 129.421 18.221 129.088 19.282 C 128.557 20.956 128.819 21.92 130.142 22.471 C 131.236 22.957 132.4 23.268 133.541 23.658 C 134.682 24.048 135.641 24.359 136.711 24.751 C 138.759 25.447 140.156 27.358 140.205 29.533 C 140.348 31.127 140.451 32.778 140.53 34.396 C 140.504 34.689 140.391 34.966 140.205 35.193 C 136.608 39.721 131.711 40.9 126.268 40.566 C 125.325 40.5 124.395 40.307 123.502 39.992 C 122.361 39.585 122.179 38.988 122.868 38.023 C 123.657 36.943 124.506 35.911 125.412 34.93 C 125.578 34.739 126.101 34.747 126.41 34.834 C 128.391 35.4 130.372 36.11 132.448 35.879 C 133.381 35.779 134.285 35.489 135.102 35.026 C 136.025 34.385 136.449 33.231 136.164 32.14 C 136.009 31.221 135.257 30.523 134.334 30.442 C 132.511 30.052 130.665 29.741 128.835 29.398 C 128.708 29.398 128.581 29.398 128.454 29.334 C 123.7 28.274 121.965 24.806 123.843 20.27 C 125.596 16.074 129.733 13.395 134.254 13.526 Z" fill="white"/>
  <path d="M 88.711 34.244 C 90.549 34.244 92.316 34.244 94.083 34.244 C 95.279 34.244 96.46 34.459 97.672 34.548 C 98.338 34.595 98.464 34.922 98.274 35.512 C 97.775 37.218 97.308 38.931 96.785 40.797 C 93.845 40.693 90.929 40.741 88.069 40.446 C 85.837 40.253 83.957 38.687 83.354 36.517 C 81.421 30.538 81.77 24.774 85.288 19.409 C 86.841 17.123 89.171 15.487 91.84 14.809 C 93.076 14.352 94.465 14.75 95.271 15.798 C 96.026 16.698 96.714 17.652 97.331 18.652 C 97.935 19.567 97.854 20.777 97.133 21.602 C 96.463 22.456 95.726 23.256 94.93 23.993 C 93.346 25.436 91.69 26.846 90.002 28.194 C 88.92 28.91 88.358 30.2 88.568 31.486 C 88.663 32.275 88.647 33.112 88.711 34.244 Z M 88.108 26.616 C 89.297 25.675 90.327 24.901 91.278 24.081 C 92.783 22.813 92.752 22.39 91.183 21.171 C 91.08 21.099 90.977 21.019 90.866 20.956 C 90.333 20.52 89.536 20.69 89.226 21.307 C 88.312 22.915 87.921 24.772 88.108 26.616 Z" fill="white"/>
  <path d="M 162.05 34.914 C 164.134 34.914 166.122 34.914 168.111 34.914 C 169.506 34.914 170.892 35.089 172.279 35.161 C 172.881 35.161 173.032 35.48 172.913 36.038 C 172.58 37.632 172.279 39.227 171.914 40.821 C 171.787 41.073 171.544 41.246 171.265 41.283 C 168.698 41.283 166.138 41.235 163.571 41.211 C 161.761 41.157 160.104 40.173 159.181 38.605 C 157.791 36.502 156.971 34.07 156.804 31.55 C 156.518 28.977 156.759 26.373 157.51 23.897 C 157.896 22.408 158.689 21.058 159.8 19.999 C 161.467 18.494 163.218 17.086 165.045 15.782 C 166.796 14.602 168.349 14.818 169.886 16.292 C 170.718 17.112 171.409 18.066 171.93 19.115 C 172.723 20.708 172.493 21.793 171.201 22.989 C 169.125 24.901 166.986 26.743 164.863 28.616 C 164.458 28.975 164.07 29.414 163.666 29.709 C 161.963 31 161.852 32.817 162.05 34.914 Z M 161.701 25.691 C 161.907 26.719 162.319 27.221 162.802 26.839 C 164.237 25.722 165.592 24.503 166.954 23.284 C 167.086 23.082 167.113 22.83 167.026 22.606 C 166.416 21.354 163.619 21.139 162.969 22.359 C 162.474 23.43 162.051 24.532 161.701 25.659 Z" fill="white"/>
  <path d="M 150.933 17.536 L 150.933 24.942 C 150.933 27.333 150.933 29.725 150.933 32.116 C 150.898 32.454 150.985 32.793 151.179 33.073 C 152.32 34.061 153.556 34.977 154.681 35.95 C 154.885 36.137 154.998 36.405 154.99 36.684 C 154.878 37.115 154.682 37.519 154.412 37.872 C 153.382 39.195 152.312 40.494 151.242 41.857 C 147.772 39.737 145.11 37.21 145.157 32.817 C 145.22 27.785 145.281 22.754 145.339 17.727 L 145.339 17.05 C 144.769 17.05 144.214 17.01 143.66 16.97 C 142.653 16.898 142.463 16.627 142.471 15.376 C 142.479 14.124 142.685 13.877 143.62 13.781 C 144.991 13.662 145.117 13.574 145.086 12.187 C 145.013 11.085 145.499 10.021 146.377 9.358 L 150.87 5.81 L 150.87 13.781 L 153.992 13.781 C 155.481 13.781 155.624 13.956 155.624 15.423 C 155.624 17.504 155.624 17.536 153.516 17.576 C 152.708 17.544 151.916 17.536 150.933 17.536 Z" fill="white"/>
  <path d="M 184.647 35.345 L 180.171 40.127 C 178.586 38.62 177.081 37.178 175.591 35.711 C 175.484 35.507 175.484 35.262 175.591 35.058 C 177.073 32.555 177.176 29.788 177.176 27.006 C 177.176 24.551 177.176 22.087 177.176 19.641 C 177.122 19.002 177.428 18.386 177.968 18.046 C 179.085 17.249 180.155 16.333 181.502 15.264 C 181.851 16.441 182.116 17.644 182.294 18.859 C 182.461 21.362 182.476 23.881 182.548 26.401 C 182.548 27.197 182.548 27.931 182.548 28.696 C 182.391 31.099 183.14 33.473 184.647 35.345 Z" fill="white"/>
  <path d="M 176.138 8.728 C 177.438 7.56 179.39 7.522 180.733 8.639 C 181.636 9.301 182.595 9.899 183.538 10.537 C 182.508 11.749 181.407 12.067 180.282 11.406 C 178.855 10.585 177.524 9.636 176.138 8.728 Z" fill="white"/>
</svg>
